tipitek/img/Password.svg

<svg width="32" height="32" viewBox="0 0 32 32" fill="none" xmlns="http://www.w3.org/2000/svg">
<path fill-rule="evenodd" clip-rule="evenodd" d="M21.7761 2.66663C26.2947 2.66663 29.3307 5.83729 29.3307 10.5546V21.4453C29.3307 26.1626 26.2947 29.3333 21.7734 29.3333H10.2161C5.69873 29.3333 2.66406 26.1626 2.66406 21.4453V10.5546C2.66406 5.83729 5.69873 2.66663 10.2161 2.66663H21.7761ZM21.7761 4.66663H10.2161C6.84406 4.66663 4.66406 6.97729 4.66406 10.5546V21.4453C4.66406 25.0226 6.84406 27.3333 10.2161 27.3333H21.7734C25.1494 27.3333 27.3307 25.0226 27.3307 21.4453V10.5546C27.3307 6.97729 25.1494 4.66663 21.7761 4.66663ZM11.7798 12.5312C13.3469 12.5322 14.6713 13.5733 15.1018 14.9985L22.677 14.9993C23.229 14.9993 23.677 15.4473 23.677 15.9993V18.47C23.677 19.022 23.229 19.47 22.677 19.47C22.125 19.47 21.677 19.022 21.677 18.47V16.9993L19.9054 16.9986L19.9061 18.47C19.9061 19.022 19.4581 19.47 18.9061 19.47C18.3541 19.47 17.9061 19.022 17.9061 18.47L17.9054 16.9986L15.1023 16.9999C14.6722 18.4268 13.3456 19.4698 11.7798 19.4698C9.86646 19.4698 8.31046 17.9125 8.31046 16.0005C8.31046 14.0872 9.86646 12.5312 11.7798 12.5312ZM11.7825 14.5312C10.9691 14.5312 10.3105 15.1898 10.3105 16.0005C10.3105 16.8112 10.9691 17.4698 11.7798 17.4698C12.5891 17.4698 13.2491 16.8112 13.2491 16.0005C13.2491 15.1912 12.5905 14.5325 11.7825 14.5312Z" fill="#30CBFF"/>
</svg>

<svg width="32" height="32" fill="none" xmlns="http://www.w3.org/2000/svg"><path fill-rule="evenodd" clip-rule="evenodd" d="M21.776 2.667c4.519 0 7.555 3.17 7.555 7.888v10.89c0 4.718-3.036 7.888-7.558 7.888H10.216c-4.517 0-7.552-3.17-7.552-7.888v-10.89c0-4.718 3.035-7.888 7.552-7.888h11.56zm0 2h-11.56c-3.372 0-5.552 2.31-5.552 5.888v10.89c0 3.578 2.18 5.888 5.552 5.888h11.557c3.376 0 5.558-2.31 5.558-5.888v-10.89c0-3.578-2.182-5.888-5.555-5.888zM11.78 12.53a3.475 3.475 0 0 1 3.322 2.467l7.575.001a1 1 0 0 1 1 1v2.471a1 1 0 0 1-2 0V17l-1.772-.001.001 1.471a1 1 0 0 1-2 0v-1.471h-2.804a3.476 3.476 0 0 1-3.322 2.47A3.474 3.474 0 0 1 8.31 16a3.473 3.473 0 0 1 3.47-3.469zm.003 2a1.47 1.47 0 1 0 1.467 1.47c0-.81-.66-1.469-1.467-1.47z" fill="#30CBFF"/></svg>
